X: 38048
T: Spike Island Lasses, The
R: reel
M: 4/4
K: Dmajor
=cAGB ADDE|FDAD FGAB|=cAGB AGFG|Adde fded|
=cAGB ADDE|FDAD FGAB|=cAGB AGFG|Addc d3e||
f2df efge|dfed cAA2|fedf edcd|Addc d2cd|
eaag efge|dfed cAG2|Addc d2dc|Adde fded||
=cAGc A3d|B3G A3B|=cAGB AGFG|Adde fded|
=cAGc A3c|BGGF G3B|=cAGB AGFG|Addc d3e||
f2ad faad|faaf geeg|fdAd faad|fage dcAc|
defg a2ab|agfa g2ag|fedf edcA|d3e fded||

